src/components/MsvcSuccess/assets/exclamation-icon.svg

<svg width="20" height="20" fill="none" xmlns="http://www.w3.org/2000/svg">
  <path fill-rule="evenodd" clip-rule="evenodd" d="M0 10C0 4.486 4.465 0 9.953 0 15.493 0 20 4.486 20 10s-4.486 10-10 10S0 15.514 0 10Zm2 0c0 4.411 3.589 8 8 8s8-3.589 8-8-3.609-8-8.047-8C5.567 2 2 5.589 2 10Zm9-5H9v7h2V5Zm0 10v-2H9v2h2Z" fill="#3640F5"/>
</svg>

<svg width="20" height="20" viewBox="0 0 20 20" fill="none" xmlns="http://www.w3.org/2000/svg">
<path fill-rule="evenodd" clip-rule="evenodd" d="M0 10C0 4.486 4.465 0 9.953 0C15.493 0 20 4.486 20 10C20 15.514 15.514 20 10 20C4.486 20 0 15.514 0 10ZM2 10C2 14.411 5.589 18 10 18C14.411 18 18 14.411 18 10C18 5.589 14.391 2 9.953 2C5.567 2 2 5.589 2 10ZM11 5H9V12H11V5ZM11 15V13H9V15H11Z" fill="#3640F5"/>
</svg>
